**kern	**kern	**dynam
*part1	*part1	*part1
*staff2	*staff1	*
*I"Piano	*	*
*clefF4	*clefG2	*
*k[f#c#g#d#]	*k[f#c#g#d#]	*
=1	=1	=1
8G#L	8BL 8dn 8e	.
8F#	8A 8d 8e	.
8E	8G# 8d 8e	.
8F#J	8AJ 8d 8e	.
=	=	=
8G#L	4B 4dn 4e	.
8E	.	.
8A	4c# 4e	.
8EJ	.	.
=	=	=
8G#^^L	8BL 8dn 8e	p
8F#^^	8A 8d 8e	.
8E^^	8G# 8d 8e	.
8F#^^J	8AJ 8d 8e	.
=	=	=
8G#L	4B 4dn 4e	.
8E	.	.
8A	4c# 4e	.
8EJ	.	.
=	=	=
2AA	8r	.
.	8AL 8c# 8e 8f#	.
.	8A 8c# 8e 8f#	.
.	8AJ 8c# 8e 8f#	.
=	=	=
8AL	8r	.
8A	8c#L 8e 8f#	.
8A	8c# 8e 8f#	.
8AJ	8c#J 8e 8f#	.
=	=	=
!	!LO:TX:b:i:t=dolce.	!
8FF#L	(8aL 8cc# 8aa	.
8F# 8A 8c# 8e	8a 8cc# 8gg#	.
8F# 8A 8c# 8e	8a 8cc# 8ff#	.
8F#J 8A 8c# 8e	8aJ 8cc# 8ee	.
=	=	=
*-	*-	*-
!!!system-decoration: {(s1,s2)}
